public/img/svg/linkedIn.svg

<svg width="28" height="26" viewBox="0 0 28 26" fill="none" xmlns="http://www.w3.org/2000/svg">
<path fill-rule="evenodd" clip-rule="evenodd" d="M10.4005 9.28109H15.6001V11.6121C16.3491 10.2715 18.2699 9.06689 21.1553 9.06689C26.6867 9.06689 27.9999 11.7356 27.9999 16.6319V25.7002H22.3999V17.747C22.3999 14.9587 21.6509 13.3862 19.7441 13.3862C17.0995 13.3862 16.0005 15.0809 16.0005 17.7458V25.7002H10.4005V9.28109Z" fill="#E3E4E6" fill-opacity="0.55"/>
<path fill-rule="evenodd" clip-rule="evenodd" d="M0.797913 25.486H6.39791V9.06689H0.797913V25.486Z" fill="#E3E4E6" fill-opacity="0.55"/>
<path fill-rule="evenodd" clip-rule="evenodd" d="M7.2002 3.713C7.20041 4.13545 7.10732 4.55372 6.92634 4.9435C6.74537 5.33329 6.48011 5.68681 6.146 5.98352C5.46896 6.58911 4.55253 6.92809 3.598 6.926C2.64515 6.92543 1.73084 6.58731 1.0528 5.98478C0.719896 5.68706 0.45554 5.33314 0.274881 4.94331C0.0942221 4.55347 0.000810785 4.13538 0 3.713C0 2.85998 0.378 2.0435 1.0542 1.44122C1.73164 0.83788 2.64634 0.499623 3.5994 0.5C4.5542 0.5 5.4698 0.83894 6.146 1.44122C6.8208 2.0435 7.2002 2.85998 7.2002 3.713Z" fill="#E3E4E6" fill-opacity="0.55"/>
</svg>

<svg width="28" height="26" fill="none" xmlns="http://www.w3.org/2000/svg"><path fill-rule="evenodd" clip-rule="evenodd" d="M10.4 9.281h5.2v2.331c.75-1.34 2.67-2.545 5.555-2.545 5.532 0 6.845 2.669 6.845 7.565V25.7h-5.6v-7.953c0-2.788-.75-4.36-2.656-4.36C17.1 13.386 16 15.08 16 17.745V25.7h-5.6V9.281ZM.798 25.486h5.6V9.066h-5.6v16.42ZM7.2 3.713c0 .422-.093.84-.274 1.23a3.17 3.17 0 0 1-.78 1.04c-.677.606-1.593.945-2.548.943-.953 0-1.867-.339-2.545-.941a3.213 3.213 0 0 1-.778-1.042A2.935 2.935 0 0 1 0 3.713c0-.853.378-1.67 1.054-2.272C1.732.838 2.646.5 3.6.5c.955 0 1.87.339 2.547.941C6.821 2.043 7.2 2.86 7.2 3.713Z" fill="#E3E4E6" fill-opacity=".55"/></svg>
